!! 00000] TT[WS
!!!OTL: Da suanzao
!!!ARE: Asia, China, Shanxi Wutai
!! Ethnic Group: Han
!! WII, 177
!!!SCT: J0668
!!!YEM: Copyright 1995, estate of Helmut Schaffrath.
**kern
*ICvox
*Ivox
*M2/4
*k[f#c#g#]
*A:
{4b
8f#
8a
=1
4b
8f#
8a
=2
8b
8a
8f#
8a
=3
8b
8a
8b
8a
=4
2b}
=5
{8a
16b
16b
8ee
8cc#
=6
2b
=7
8.a
16b
8g#
8f#
=8
8e
8d
8r
8f#
=9
8e
8d
4r}
=10
{8f#
16f#
16f#
8b
16g#
16g#
=11
4.f#
8e
=12
8d
8e
8f#
8d
=13
2B}
==
!!!AGN: Xiaodiao. Laodong, Fengsu
!!!ONB: ESAC (Essen Associative Code) Database: CHINA
!!!AMT: simple duple
!!!AIN: vox
!!!EED: Helmut Schaffrath
!!!EEV: 1.0
*-
